X:42
T:Caprices - IX 
R:
C:Paganini
H:
N:
B:
O:Italie
A:
Z:<anamnese@laposte.net> -- http://anamnese.fr.st
M:2/4
L:1/8
Q:1/8=147
K:E treble
%%text sur la touche - imitant la Flte
!p![g/b/][f/a/] |[eg][e/g/][B/f/] [Ge][g/b/][f/a/] | [eg][e/g/][B/f/] [Ge][G/e/][B/f/] |
[eg][B/f/][e/g/] [fa][B/f/][f/a/] |[gb][f/a/][e/g/] [BF][g/b/][f/a/] |
                 [eg][e/g/][B/f/] [Ge][g/b/][f/a/] | [eg][e/g/][B/f/] [Ge][G/e/][B/f/] |
[eg][f/a/][e/g/] [Bf][e/g/][B/f/] | [G2e2] z 
%%text imitant le Cor - sur la 4 et 3 C
!f![E,/E/][E/G/] | [B,F][E/G/][F/A/] [GB][A/c/][G/B/] | [FA][E/G/][F/A/] [B,F][E,/E/][E/G/] |
                   [B,F][E/G/][F/A/] [GB][A/c/][G/B/] | [FA][E/G/][F/A/] [B,F] !p![g/b/][f/a/]
[eg][e/g/][B/f/] [Ge] !f![G/B/][F/A/] | [EG] [E/G/][B,/F/] [E,E] !p![G/e/][B/f/] | 
[eg][f/a/][e/g/] [Bf][e/g/][B/f/] | [G2e2] z ||
